images/themes/default/mIconArrangeSymbolsRight.svg

<svg height="24" viewBox="0 0 6.35 6.35" width="24" xmlns="http://www.w3.org/2000/svg"><path d="m.53 2.646h3.174v.529h-3.174zm0 1.852h1.904v.529h-1.904zm0-3.44h2.539v.53h-2.54z" fill="#555753" visibility="hidden"/><path d="m4.345.641h1.365v1.1h-1.365zm0 1.852h1.365v1.1h-1.365zm0 1.852h1.365v1.1h-1.365z" fill="#848484" stroke="#5c5c5c" stroke-width=".224"/></svg>

<svg xmlns="http://www.w3.org/2000/svg" width="24" height="24" viewBox="0 0 6.35 6.35"><path style="marker:none" d="M.53 2.646h3.174v.529H.53zm0 1.852h1.904v.529H.53zm0-3.44h2.539v.53H.529z" color="#555753" overflow="visible" fill="#555753" filter="url(#filter8750)"/><path d="M4.345.641H5.71v1.1H4.345zm0 1.852H5.71v1.1H4.345zm0 1.852H5.71v1.1H4.345z" fill="#848484" stroke="#5c5c5c" stroke-width=".224"/></svg>
